X:822
T:Under the Greenwood Tree. Ed.1695. [6/4]
T:John Malchair's Third Collection of Tunes
F:https://www.vwml.org/record/Malchair/3619/p82
F:www.vwml.org/topics/historic-dance-and-tune-books/Malchair
Z:Eric Conrad Apr 2020
W:See the words in As you like it Act 3.Scene 5th.  (see Words, below)
W:As in the Dancing Master published in 1695 page 95.
M:6/4 % MS has archaic time signature 3
L:1/4
K:Amix
P:A
|: a2a a2g | f2e d>ef | e2A B2c |1 d3 d3 :|2 d3 d2 ||
P:B
d | c2B c2d | e>fe A2f | e2d e2f | g3- g2a |
f>ed e2A | e>fe g2f | e>dc B2A | A3- A2 |]


